X:095
T:The Humours of Glen              
B:Complete Repository, Part Second (c1810-20)
N:"Supposed Irish"
Z:Nigel Gatherer
M:6/8
L:1/8
K:Am
E|Ac/B/A/^G/ AEE|EcB cEE|Ac/B/A/^G/ AEc|DE^G A2 E|Ac/B/A/^G/ AEE|EcB cEE|
FG/F/E/D/ EF/E/D/C/|DE^G A2::C/A/|G/A/cc c2 e/d/|c/B/c/d/e/f/ gec|\
fg/f/e/d/ ecA|GE^G A2::c/A/|GEE cEE|
GEE ABc|GEc A/G/F/E/D/C/|DE^G A2 c/A/|GEE AFF|GEc A/G/F/E/D/C/|\
fg/f/e/d/ ecA|GE^G A2:|
